P3
8 6
255
16 24 32  40 60 90  80 120 160  120 180 220  180 220 240  220 180 120  180 100 80  120 60 90
30 40 60  70 110 150  110 170 210  150 210 240  230 210 130  245 160 90  200 90 100  130 70 120
50 70 100  90 150 190  130 200 230  190 240 220  250 220 120  250 140 80  220 80 120  150 80 150
70 90 130  110 170 210  160 220 230  210 245 200  245 210 100  240 120 90  210 70 150  170 90 180
90 110 150  130 190 220  190 230 220  230 245 180  235 190 90  220 100 110  190 80 170  150 80 170
110 130 170  160 210 230  210 240 210  235 230 150  220 160 90  190 90 130  160 80 160  120 70 140
